X: 1
T:Father Francis Cameron
M:4/4
L:1/8
C:John Campbell
O:Cape Breton
K:A
E2|"A"A2 cA "D"FDDF|"A"EA,CE "D"F2 DF|"A"EAcA e2 cA|"E"BEGB "G"d2 cB|"A"
A2 cA "D"FDDF|"A"EA,CE "D"F2 DF|"A"EAce "D"dcdf|"E"ecdB "A"A2:||:cd|"A"e
